X: 0041
T: Polska efter Gamt Berg
O: efter S.J. Larsson
%R: polska
B: Paul B\"ackstr\"om's "L\aatar fr\aan Dalarna" collection" 1974
Z: 2022 John Chambers <jc:trillian.mit.edu>
M: 3/4
L: 1/16
N: K.E.F.41. V.
K: G
% - - - - - - - - - -
|: G2Ac ~B2AB G3B | d2eg ~f2ef d3D | G2Ac ~B2AB G3B | d2eg ~f2ef d2f2 | a3a g2(ga) f3g | e2(fe) d4 z4 :|
|: {f}g3f e2(fe) d4 | g2f2 (ef)ed B4 | {c}B2AB c2(Ac) B3G |1 (Ac)AF G3B d4 :|2 (Ac)AF G8 |]
% - - - - - - - - - -
%%text Jmf S.L. nr 396

%%sep 2 1 500
%%sep 1 1 500

